X:1
T:O salutaris
T:D. Müller
T:O salutaris
C:D. Müller
%%score ( 1 2 ) { ( 3 5 ) | ( 4 6 ) }
L:1/8
Q:1/4=80
M:3/4
K:Bb
V:1 treble nm="Soprano Alto"
V:2 treble 
V:3 treble nm="Organo"
V:5 treble 
V:4 bass 
V:6 bass 
V:1
"^Andante" z6 | z6 | z6 | z6 | z6 | z6 | z6 | z6 ||"^Dolce" F2 G2 F2 | =E4 F2 | B4!>)!!>(! B2 | %11
w: ||||||||O sa- lu-|ta- ris|ho- sti-|
 A4 z2 | c2 d2 c2 | =B4 c2 | d4!>)!!>(! c2 | B4 z2 | (F2 G2) F2 | =E4 F2 | B4!>(! cB!>)! | A4 z2 | %20
w: a,|quae coe- li|pan- dis|o- sti-|um.|Bel- * la|pre- munt|ho- sti- li-|a:|
 c2 d2 c2 | =B4 c2 | (e2!>(! G2) A2!>)! | B4 z2 |"^Solo" D2 G2 A2 | B4 B2 | B4 A2 | G4 z2 | %28
w: da ro- bur,|fer au-|xi- * li-|um.|U- ni tri-|no- que|Do- mi-|no,|
"^Tutti" G2 B2 c2 | d4 d2 | d4 c2 | B4 z2 |"^Solo" d2 e2 d2 | A4 c2 | B4 A2 | G4 z2 |"^Solo" z6 | %37
w: u- ni tri-|no- que|Do- mi-|no|sit sem- pi-|ter- na|glo- ri-|a,||
 z6 | z6 | z6 |"^Tutti" F2 G2 F2 | =E4 F2 | B4 B2 | A4 z2 | c2 d2 c2 | =B4 c2 | %46
w: |||Qui vi- tam|si- ne|ter- mi-|no|no- bis do-|net in|
 (e2!>(! G2) A2!>)! | B4 z2 |"^-"!>(! F6!>)! | D4 z2 |"^-"!<(! (F4 B2)!<)! | !fermata!B4 z2 |] %52
w: Pa- * tri-|a.|A-|men,|a- *|men.|
V:2
 x6 | x6 | x6 | x6 | x6 | x6 | x6 | x6 || D2 E2 D2 | ^C4 D2 | D4 D2 | C4 x2 | E2 F2 E2 | D4 E2 | %14
w: ||||||||||||||
 F4 E2 | D4 x2 | (D2 E2) D2 | ^C4 D2 | D4 ED | C4 x2 | E2 F2 E2 | D4 E2 | C4 E2 | D4 x2 | z6 | z6 | %26
w: ||||||||||||
 z6 | z6 | D2 G2 A2 | B4 B2 | B4 A2 | G4 x2 | z6 | z6 | z6 | z6 | A2 B2 A2 | =E4 G2 | F4 =E2 | %39
w: ||||||||||sit sem- pi-|ter- na|glo- ri-|
 D4 z2 | D2 E2 D2 | ^C4 D2 | D4 D2 | C4 x2 | E2 F2 E2 | D4 E2 | C4 E2 | D4 x2 | D6 | B,4 x2 | D6 | %51
w: a.||||||||||||
 D4 x2 |] %52
w: |
V:3
!p!"^Andante" [Fd]2 ([=E^c][Fd][G_e][Fd]) | [DB]4 z2 | [CE]2 [=B,D][CE][DF][CE] | [A,C]4 z2 | %4
 ([B,D][DF][FB][Bd]) [df]2- | ([df]4 [ce]2 | [Bd]2) z4 | (c2 e2 A2) || [DF]2 [EG]2 [DF]2 | %9
 [^C=E]4 [DF]2 | [DB]4 [DB]2 | [CA]4 z2 | [Ec]2 [Fd]2 [Ec]2 | [D=B]4 [Ec]2 | [Fd]4 [Ec]2 | %15
 [DB]4 z2 | [DF]2 [EG]2 [DF]2 | [^C=E]4 [DF]2 | [DB]4 [Ec][DB] | [CA]4 z2 | [Ec]2 [Fd]2 [Ec]2 | %21
 [D=B]4 [Ec]2 | e2 G2 A2 | [DB]3 [EA][B,G][A,^F] | D2 G2 A2 | B4 B2 | B4 A2 | G4 z2 | G2 B2 c2 | %29
 d4 d2 | d4 c2 | B2 z4 | d2 e2 d2 | A4 c2 | B4 A2 | GD^CDGB | A2 B2 A2 | =E4 G2 | F4 =E2 | %39
 D2 _E2 E2 | [DF]2 [EG]2 [DF]2 | [^C=E]4 [DF]2 | [DB]4 [DB]2 | [CA]4 z2 | [Ec]2 [Fd]2 [Ec]2 | %45
 [D=B]4 [Ec]2 | e2 G2 A2 | [DB]4 z2 | F6 | D4 z2 | F4 B2 | !fermata![FB]6 |] %52
V:4
 B,6- | B,>A, B,F,D,B,, | F,6- | F,>=E, F,C,A,,F,, | B,,4- B,,D, | F,B,DF ^F2 | G2 z4 | E2 C2 F2 || %8
 B,,6 | B,,6 | F,6- | F,>=E, F,C,A,,C, | F,,6 | F,,6 | F,6 | B,,>A,, B,,D,F,D, | B,,6 | B,,6 | %18
 F,6- | F,>=E, F,C,A,,C, | F,,6 | F,,6 | C6 | B,3 C, D,2 | G,,2 z2 ^F,2 | G,6 | G,,2 z2 ^F,2 | %27
 G,2 D,2 B,,2 | G,,2 z2 ^F,2 | G,6 | G,,2 z2 ^F,2 | G,2 z2 z2 | ^F,DA,DA,D | ^F,DA,DA,D | G,4 D,2 | %35
 G,2 z2 z2 | ^C,A,=E,A,E,A, | ^C,A,=E,A,E,A, | D,4 A,,2 | [F,A,]2 [G,=C]2 [A,C]2 | B,,6 | B,,6 | %42
 F,6- | F,>=E, F,C,A,,C, | F,,6 | F,,6 | C6 | B,,>D, F,G,F,D, | B,,>D, F,G,F,D, | B,,>D, F,G,F,D, | %50
 B,,>D, F,G,F,D, | !fermata!B,,6 |] %52
V:5
 x6 | x6 | x6 | x6 | x6 | x6 | x6 | G4 A2 || x6 | x6 | x6 | x4 x2 | x6 | x6 | x6 | x4 x2 | x6 | %17
 x6 | x6 | x4 x2 | x6 | x6 | E6 | x6 | DB,GDCD | B,DB,DB,D | B,DB,DCD | B,DB,DB,D | GDGDAD | %29
 BDGDBD | BDGDAD | G^FGABc | x6 | x6 | BDGB[C^F]D | B,2 x4 | x6 | x6 | FA,DFG,^C | x6 | x6 | x6 | %42
 x6 | x4 x2 | x6 | x6 | E6 | x4 x2 | D6 | B,4 x2 | D6 | [B,D]6 |] %52
V:6
 x6 | x6 | x6 | x6 | x6 | x6 | x6 | x6 || B,,2 B,2 B,2 | B,,2 B,2 B,2 | B,,2 D,2 B,,2 | x6 | %12
 F,,2 F,2 F,2 | F,,2 F,2 F,2 | F,,2 A,,2 F,,2 | x6 | B,,2 B,2 B,2 | B,,2 B,2 B,2 | B,,2 D,2 B,,2 | %19
 x6 | F,,2 F,2 F,2 | F,,2 F,2 F,2 | C,4 F,2 | x6 | x6 | x6 | x6 | x6 | x6 | x6 | x6 | x6 | ^F,6 | %33
 ^F,6 | x6 | x6 | ^C,6- | C,6 | x6 | D,2 =C,2 [F,,F,]2 | B,,2 B,2 B,2 | B,,2 B,2 B,2 | %42
 B,,2 D,2 B,,2 | x6 | F,,2 F,2 F,2 | F,,2 F,2 F,2 | C,4 F,2 | x6 | x6 | x6 | x6 | x6 |] %52

